X: 25034
T: Maidhc Dainnín Ó Sé's
R: slide
M: 12/8
K: Dmajor
a2g|:f2a g2e fed B2A|def agf e3 a2g|
f2a g2e fed B2A|dcd f2e d3 d3:|:
e3 efg a3 agf|e3 efe d2B BAB|
e3 efg a3 agf|efe dcB A3 A3:|

